Newaita/actions/24/taxes-finances.svg

<svg height="24" viewBox="0 0 24 24" width="24" xmlns="http://www.w3.org/2000/svg"><g fill="#424242"><path d="m2.976562 4.652344c-.550781 0-.992187.441406-.992187.992187v13.890625c0 .550782.441406.996094.992187.996094h17.863282c.546875 0 .992187-.445312.992187-.996094v-13.890625c0-.550781-.445312-.992187-.992187-.992187h-5.957032v1.984375h4.464844c.277344 0 .496094.222656.496094.496093v10.914063c0 .277344-.21875.496094-.496094.496094h-14.882812c-.273438 0-.496094-.21875-.496094-.496094v-10.914063c0-.273437.222656-.496093.496094-.496093h4.464844v-1.984375zm0 0"/><path d="m9.921875 3.660156c-.546875 0-.992187.441406-.992187.992188v5.953125c0 .550781.445312.992187.992187.992187h3.96875c.550781 0 .992187-.441406.992187-.992187v-5.953125c0-.550782-.441406-.992188-.992187-.992188zm.496094.992188h2.976562c.277344 0 .496094.222656.496094.496094v4.960937c0 .277344-.21875.496094-.496094.496094h-2.976562c-.273438 0-.496094-.21875-.496094-.496094v-4.960937c0-.273438.222656-.496094.496094-.496094zm0 0"/><path d="m11.90625 5.644531c.550781 0 .992188.445313.992188.992188s-.441407.992187-.992188.992187c-.546875 0-.992188-.445312-.992188-.992187s.445313-.992188.992188-.992188zm0 0"/></g></svg>

<svg xmlns="http://www.w3.org/2000/svg" xmlns:xlink="http://www.w3.org/1999/xlink" width="24px" height="24px" viewBox="0 0 24 24" version="1.1">
<g id="surface1">
     <defs>
  <style id="current-color-scheme" type="text/css">
   .ColorScheme-Text { color:#424242; } .ColorScheme-Highlight { color:#eeeeee; }
  </style>
 </defs>
<path style="fill:currentColor" class="ColorScheme-Text" d="M 2.976562 4.652344 C 2.425781 4.652344 1.984375 5.09375 1.984375 5.644531 L 1.984375 19.535156 C 1.984375 20.085938 2.425781 20.53125 2.976562 20.53125 L 20.839844 20.53125 C 21.386719 20.53125 21.832031 20.085938 21.832031 19.535156 L 21.832031 5.644531 C 21.832031 5.09375 21.386719 4.652344 20.839844 4.652344 L 14.882812 4.652344 L 14.882812 6.636719 L 19.347656 6.636719 C 19.625 6.636719 19.84375 6.859375 19.84375 7.132812 L 19.84375 18.046875 C 19.84375 18.324219 19.625 18.542969 19.347656 18.542969 L 4.464844 18.542969 C 4.191406 18.542969 3.96875 18.324219 3.96875 18.046875 L 3.96875 7.132812 C 3.96875 6.859375 4.191406 6.636719 4.464844 6.636719 L 8.929688 6.636719 L 8.929688 4.652344 Z M 2.976562 4.652344 "/>
     <defs>
  <style id="current-color-scheme" type="text/css">
   .ColorScheme-Text { color:#424242; } .ColorScheme-Highlight { color:#eeeeee; }
  </style>
 </defs>
<path style="fill:currentColor" class="ColorScheme-Text" d="M 9.921875 3.660156 C 9.375 3.660156 8.929688 4.101562 8.929688 4.652344 L 8.929688 10.605469 C 8.929688 11.15625 9.375 11.597656 9.921875 11.597656 L 13.890625 11.597656 C 14.441406 11.597656 14.882812 11.15625 14.882812 10.605469 L 14.882812 4.652344 C 14.882812 4.101562 14.441406 3.660156 13.890625 3.660156 Z M 10.417969 4.652344 L 13.394531 4.652344 C 13.671875 4.652344 13.890625 4.875 13.890625 5.148438 L 13.890625 10.109375 C 13.890625 10.386719 13.671875 10.605469 13.394531 10.605469 L 10.417969 10.605469 C 10.144531 10.605469 9.921875 10.386719 9.921875 10.109375 L 9.921875 5.148438 C 9.921875 4.875 10.144531 4.652344 10.417969 4.652344 Z M 10.417969 4.652344 "/>
     <defs>
  <style id="current-color-scheme" type="text/css">
   .ColorScheme-Text { color:#424242; } .ColorScheme-Highlight { color:#eeeeee; }
  </style>
 </defs>
<path style="fill:currentColor" class="ColorScheme-Text" d="M 11.90625 5.644531 C 12.457031 5.644531 12.898438 6.089844 12.898438 6.636719 C 12.898438 7.183594 12.457031 7.628906 11.90625 7.628906 C 11.359375 7.628906 10.914062 7.183594 10.914062 6.636719 C 10.914062 6.089844 11.359375 5.644531 11.90625 5.644531 Z M 11.90625 5.644531 "/>
</g>
</svg>
